X: 1
T:A jazzy lil tune ;)
M:4/4
L:1/4
Q:1/4=200
K:C minor clef=bass
%
B,, D, F, G, | A, G, F, D, | B,, D, F, G, | A, G, F, D, |
E, G, B, C | _D C B, G, | B,, D, F, G, | A, G, F, D, |
Q:1/4=170
F, z1/ F,3/ F,/_F,/ | E, z1/ E,3/ _D, | B,, z1/ B,,3 |]